X:3308
T:Milton's Welcome
P:Gipsy Hornpipe
C:Astor's 24 Country Dances for the year 1803
R:Reel (8x32)
B:RSCDS 33-8
Z:Anselm Lingnau <anselm@strathspey.org>
M:C
L:1/8
K:C
|:c|"C"BcBc GcBc|ecgc "F"acgc|"C"GcBc GcBc|"D7"e2d2 d4|
    "C"BcBc GcBc|ecgc "F"acgc|"G"GcBd "Dm"ca"G7"gf|"C"e2"F"c2"C"c3:|
|:e|"C"gagf efed|"Am"cdcB "F"AG"G7"FE|"C"EGcG EFGE|"Dm"F2D2 D3 f|
    "C"ga"G7"gf "C"ef"G"ed|"Am"cd"G"cB "F"AG"G7"FE|\
         "C"EGcG "Dm"Fa"G7"gf|"C"e2c2 c3:|
